src/img/icons/save.svg

<svg width="32" height="32" viewBox="0 0 32 32" fill="none" xmlns="http://www.w3.org/2000/svg">
<path d="M5.392 29C4.73486 29 4.17191 28.7656 3.70315 28.2969C3.23438 27.8281 3 27.2651 3 26.608V5.392C3 4.73486 3.23438 4.17191 3.70315 3.70315C4.17191 3.23438 4.73486 3 5.392 3H22.3815C22.7093 3 23.0224 3.06475 23.3209 3.19424C23.6194 3.32373 23.8752 3.49489 24.0883 3.70774L28.2923 7.91171C28.5051 8.1248 28.6763 8.3806 28.8058 8.67909C28.9353 8.97758 29 9.29072 29 9.61853V26.608C29 27.2651 28.7656 27.8281 28.2969 28.2969C27.8281 28.7656 27.2651 29 26.608 29H5.392ZM27.0783 9.46674L22.5333 4.92171H5.392C5.25486 4.92171 5.1422 4.9658 5.054 5.054C4.9658 5.1422 4.92171 5.25486 4.92171 5.392V26.608C4.92171 26.7451 4.9658 26.8578 5.054 26.946C5.1422 27.0342 5.25486 27.0783 5.392 27.0783H26.608C26.7451 27.0783 26.8578 27.0342 26.946 26.946C27.0342 26.8578 27.0783 26.7451 27.0783 26.608V9.46674ZM15.9939 23.9606C16.9679 23.9606 17.7996 23.6179 18.4891 22.9324C19.1786 22.2468 19.5234 21.417 19.5234 20.4433C19.5234 19.4693 19.1807 18.6376 18.4952 17.9481C17.8095 17.2586 16.9798 16.9138 16.0061 16.9138C15.0321 16.9138 14.2004 17.2565 13.5109 17.942C12.8214 18.6277 12.4766 19.4574 12.4766 20.4311C12.4766 21.4051 12.8193 22.2368 13.5048 22.9263C14.1905 23.6158 15.0202 23.9606 15.9939 23.9606ZM8.47835 12.3195H18.6038C18.9451 12.3195 19.2299 12.2039 19.458 11.9727C19.6859 11.7415 19.7998 11.4584 19.7998 11.1235V8.47835C19.7998 8.13704 19.6859 7.85244 19.458 7.62456C19.2299 7.39642 18.9451 7.28235 18.6038 7.28235H8.47835C8.13704 7.28235 7.85244 7.39642 7.62456 7.62456C7.39642 7.85244 7.28235 8.13704 7.28235 8.47835V11.1235C7.28235 11.4584 7.39642 11.7415 7.62456 11.9727C7.85244 12.2039 8.13704 12.3195 8.47835 12.3195Z" fill="#131212"/>
</svg>

<svg xmlns="http://www.w3.org/2000/svg" viewBox="0 0 32 32">
  <path fill="currentColor" d="M5.392 29c-.657 0-1.22-.234-1.689-.703A2.303 2.303 0 0 1 3 26.608V5.392c0-.657.234-1.22.703-1.689A2.303 2.303 0 0 1 5.392 3h16.99a2.455 2.455 0 0 1 1.707.708l4.203 4.204A2.456 2.456 0 0 1 29 9.619v16.989c0 .657-.234 1.22-.703 1.689a2.303 2.303 0 0 1-1.689.703H5.392ZM27.078 9.467l-4.545-4.545H5.392a.458.458 0 0 0-.338.132.458.458 0 0 0-.132.338v21.216c0 .137.044.25.132.338.088.088.2.132.338.132h21.216c.137 0 .25-.044.338-.132a.458.458 0 0 0 .132-.338V9.467ZM15.994 23.96a3.41 3.41 0 0 0 2.495-1.029 3.381 3.381 0 0 0 1.034-2.489 3.41 3.41 0 0 0-1.028-2.495 3.381 3.381 0 0 0-2.489-1.034 3.41 3.41 0 0 0-2.495 1.028 3.381 3.381 0 0 0-1.034 2.49 3.41 3.41 0 0 0 1.028 2.494 3.381 3.381 0 0 0 2.489 1.035ZM8.478 12.32h10.126c.341 0 .626-.116.854-.347.228-.232.342-.515.342-.85V8.479c0-.341-.114-.626-.342-.853a1.16 1.16 0 0 0-.854-.343H8.478c-.341 0-.626.114-.853.343a1.158 1.158 0 0 0-.343.853v2.646c0 .334.114.617.343.849.227.23.512.346.853.346Z"/>
</svg>
